/* XPM */
static char *chrom111ium[] = {
"32 32 9 1 0 0",
"  c #800000",
"! c #808000",
"# c #808080",
"$ c #C0C0C0",
"% c #FFFF00",
"& c #FFFFFF",
"' c #FF0000",
"( c #800080",
") c None",
"))))))))))))))))))))))))))))))))",
"))))))))))))))))))))))))))))))))",
"))))))))))))))))))))))))))))))))",
"))))))))))))))))))))))))))))))))",
"))))))))))))))))))))))))))))))))",
")))))))) !  !  !  !  !  !)))))))",
")))))))!###$##$#$##$##$## ))))))",
")))))) #$%&%&%&&&&&%&%&%&! )))))",
")))))) !&$$&$$%$&&%$$&$&%$! ))))",
")))))! #&%&%&%&$&&$&%&%$&# #))))",
")))) #!#%$&$%&$&&&%$$%$$%$!'!)))",
"))))!%'#&$%$##%&&&$%$$#&&#!%(!))",
"))) #% #%$###'&&&&&!##'$%$'%! ))",
")) !%#'$&%#' $%&&&&%  !&&!#'%$ !",
"))!#%%!!$&$$!$&&&&$$$#$%$$!%%!!(",
"))  #'##&%$%&%&&&&&&%&%&&!'#'# )",
")))) ! !$&$&$&&&&&&&$$$$%$! #)))",
")))))) $%$%$%&&&&&&&%&%&&# )))))",
")))))) #&&%&&&$$$$$&&$$%$%()))))",
"))))))!#%$$$&$!###'$&&%&$$!)))))",
")))))) #&%&&&&#'&$!$&&&$%$ )))))",
")))))) #%$&&&&&###$&&&&$&#!)))))",
"))))))!#$&&&&&&$ #&&&&&%&!')))))",
"))))))) %&&&&&$!%'$&&&&&$! )))))",
"))))))) #$&&&$ !%! $&&&&! ))))))",
")))))))) !#&$! (!(! $&$! )))))))",
"))))))))) !! ! ! ! ! ! !))))))))",
"))))))))))))))))))))))))))))))))",
"))))))))))))))))))))))))))))))))",
"))))))))))))))))))))))))))))))))",
"))))))))))))))))))))))))))))))))",
"))))))))))))))))))))))))))))))))"
};
